X: 2152
T: Şedarabân Taksim
C: Tanburî Cemil Bey
O: Turkey
F: http://compmusic.upf.edu/node/140
N: sedaraban--taksim--serbest----tanburi_cemil_bey
N: makam= sedaraban
N: form= taksim
N: usul= serbest = 0/1
M: 0/1
L: 1/16
K: C _7/8B _7/8e ^f ^c
Q: 1/4=60
%%MIDI tuningsystem comma53
d2 c d e f g a b a g f g4  | g4 z4 z4 _f2 g f  | \
w:   |   | 
g a b c' a c' b a/ z/ g g g f2 g g f  | 
w:   | 
e3/2 d/ d4 d4 d4 z4 d3 d a6 a4  | \
w:   | 
a4 a4 a4 a4  | a4 a4 a a a a a3/2 g/ a4 z4 d e f g a b g a b =c'2 d' d' c' b a g f e d c d2 d4 z4 z4 z4 z4 d3 d d b3 b4 b b a  | 
w:   |   | 
g2 f4 z4 z4 z4 d4 z2 d2 d2 a2 g2  | \
w:   | 
a2 f2 g/ a/ g/ f/ g3 e d c/ d2 z4 z4 d2 f2 e2 f2 f e2 d c2 d4 c2 d2 e2 f2 d4 e2 d2 c2 d4 c2 d2 e2 f2 d2 g2 f/ e3/2 d4 z4 c2 d2 e2 f2 g2 a2 f2 e2 d2 f2 g2 a2 b2 g2 a2 z f g2 z e f2 e d d2 c2 d e f g g f e e e e e e e e e e e2 d2 _a2 a/ g3/2 g f3 f e3 e d3 d2 c d e f d2 d2 e d d4 d4 d4 d4 d2 e/ d/ B/ d2 z4 G2 z G2 G4 d4 z4 z4 z4 z4 G3 G d6  | 
w:   | 
d4 d _1/4e =f f _7/8e2 d z2 c B A  | \
w:   | 
B c d2 c2 d3 c B A G2 G2  | 
w:   | 
A4 B2 c4 z2 d c B A  | G2 A2 B B A G F2 G2 A A G2  | \
w:   |   | 
A B d =c B A G F E D4 C2 D4 z2 D4 D4 D4 D4 d2 ^c2 d2 d2 e2 d2 d2 c2 c2 B2 B2 A2 A2 G2 G2 F2 F2 E2 D4 F2 G2 A2 B2 =c2 A2 G2 F2 G2 A2 F2 E2 D2 E2 F2 G2 A2 E2 E E E D D8 z4 z4 z4 d3 d d'2 =c'2 _1/4b2 a2 ^c'2 b2 a2 b2 a2 b2 c' d' c'2 b2 b3 a g2 a2 g3 a g2 a2 a4 a4 a4 z4 z4 z4 G  | 
w:   | 
A _1/4B =c d =e e d c B2 A G A3/2 B/ A c  | \
w:   | 
d3 =c2 _1/4B A G A4 z4  | 
w:   | 
z4 a4 =c' c' _1/4b a a g f f  | g a3/2 _1/4b/ g2 a b =c' a b a g f g a _b  | 
w:   |   | 
g _b a4 b2 a4 b2 a4 b2 a4 b2 a4 b2  | \
w:   | 
a4 z4 A2 A4 z2  | A4 A4 A4 E4  | 
w:   |   | 
A4 c' _1/4b _b2 b2 a a _7/8b c' c' b  | \
w:   | 
a g f g a _b g2 c'2 b a a2 b2  | 
w:   | 
a g a4 z4 a b2 a g f  | g a _1/4b =c' d' b c'2 c'4 =c3 _1/4B  | \
w:   |   | 
=c _1/4B c d d c B A A4 b b z a/ b b z a/ b b z a/ b b z a/ b a b =c' d' d'  | 
w:   | 
=c' b a g2 z2 A _1/4B A B c d c _e d2 c2 B A G2 f2 g2 a2 _b2 g2 ^c'2 z b2 a4 g g f g2 a  | 
w:   | 
g g g g f g4 z4 F G A  | A G G4 c c B A G G F G4 f g a _b g3/2 b/ a g f/ g3/2 g4 g4 g4 g4 g4 f2 g2 f2 g2 f2 g2 b2 _1/4a2 g  | 
w:   |   | 
_b _1/4a g f e d3/2 c/ d2 d3/2 f/ e f d4 g f e d4 =a g a f4 e  | 
w:   | 
f g a f e d2 c d e e d c d4 c2 d2 e2 d2 g2 f e3 d2 c2 d2 e2 e2 B B2 A A2 G  | 
w:   | 
G F G2 G4 G4 =c4  | =c4 c4 c4 ^c2 d4 c2 ^d4 c2 B A G A B =d  | \
w:   |   | 
=c e d c B A G A B B A G A F G F  | 
w:   | 
E D4 D3 D =c B2 B A3  | A G3 G F3 F F E D3/2 D2 G F G A3 G F E D A2 F E4 E E E D D4 D8 z4 z4 |
w:   |   | 


